X:1
T:Title
%%score { ( 1 3 ) | ( 2 4 ) }
L:1/8
M:3/4
K:Bb
V:1 treble nm="Grand Piano"
V:3 treble 
V:2 bass 
V:4 bass 
V:1
 z2 z2[Q:1/4=112] [DF]2 | [DF]2 [B,D]2 [CE]2 | [DF]4 [Fd]2 | c2 B2 G2 | B4 G2 | %5
 [B,DF]2 [_D=E]2 [B,=DF]2 | [B,B]2 c2 [Fd]2 | d6 | c4 F2 | [B,DF]2[K:bass] [B,D]2 [F,CE]2 | %10
 [DF]4 [Fd]2 | c2 B2 G2 | [GB]4 G2 | F2 =E2 F2 | B2 z2 z2 | [Ec]6 | [DB]6 | c2 B2 c2 | d4 d2 | %19
 e2 c2 f2 | d4 [Fd]2 | [Fc]4 [FA]2 | [Fc]2 [=EB]2 [B,EG]2 | [B,=EG]6 |[M:2/4] [A,F]4 | %25
[M:1/4] [A,EF]2 |[M:3/4] [B,DF]2[K:bass] [B,D]2 [F,CE]2 | [DF]4 [Fd]2 | c2 z2 z2 | B4 G2 | %30
 F2 =E2 F2 | B2 z2 z2 | [Ec]6 |[M:2/4] [DB]4 |] %34
V:2
 z2 z2 [B,,B,]2 | [B,,B,]2 [B,,F,]2 [B,,F,]2 | [B,,B,]4 [B,,B,]2 | [E,B,]4 [E,B,E]2 | %4
 [E,G,E]4 [E,B,E]2 | z2 G,2 B,,2 | D,2 [C,A,]2 [B,,B,]2 | [F,B,F]6 | [F,A,F]4 [F,A,E]2 | %9
 z2 F,2 B,,2 | [B,,B,]4 [B,,B,]2 | [E,B,]4 [E,B,E]2 | [E,B,]4 [E,B,E]2 | B,2- [G,B,_D]2 [F,B,=D]2 | %14
 [D,B,]2 [C,A,]2 [B,,B,]2 | [F,A,]6 | [B,,B,]6 | [F,A,F]2 [F,G,F]2 [F,A,F]2 | [B,F]4 [B,F]2 | %19
 C2 A,2 [A,CF]2 | [B,F]4[K:bass] [B,,B,]2 | [C,A,]4 [C,F,]2 | A,2 z2 z2 | C,6 |[M:2/4] F,4 | %25
[M:1/4] F,2 |[M:3/4] z2 F,2 B,,2 | [B,,B,]4 [B,,B,]2 | [E,B,]4 [E,B,E]2 | [E,G,E]4 [E,B,E]2 | %30
 B,2- [G,B,_D]2 [F,B,=D]2 | [D,B,]2 [C,A,]2 [B,,B,]2 | [F,A,]6 |[M:2/4] [B,,B,]4 |] %34
V:3
 x6 | x6 | x6 | G4 z2 | x6 | x6 | F4 z2 | x6 | x6 | x2[K:bass] x4 | x6 | G4 z2 | x6 | x6 | %14
 F2- [Fc]2 [Fd]2 | x6 | x6 | x6 | x6 | x6 | x6 | x6 | x6 | x6 |[M:2/4] x4 |[M:1/4] x2 | %26
[M:3/4] x2[K:bass] x4 | x6 | G2- [GB]2 G2 | x6 | x6 | F2- [Fc]2 [Fd]2 | x6 |[M:2/4] x4 |] %34
V:4
 x6 | x6 | x6 | x6 | x6 | B,,4 z2 | x6 | x6 | x6 | B,,4 z2 | x6 | x6 | x6 | [F,D]2 z2 z2 | x6 | %15
 x6 | x6 | x6 | x6 | [F,F]4 z2 | x4[K:bass] x2 | x6 | C,2- [C,G,]2 C,2 | x6 |[M:2/4] x4 | %25
[M:1/4] x2 |[M:3/4] B,,4 z2 | x6 | x6 | x6 | [F,D]2 z2 z2 | x6 | x6 |[M:2/4] x4 |] %34

